assets/icons/qvision/gps_not_fixed.svg

<svg xmlns="http://www.w3.org/2000/svg" height="24" viewBox="0 0 24 24" width="24"><path d="M0 0h24v24H0z" fill="none"/><path d="M20.94 11c-.46-4.17-3.77-7.48-7.94-7.94V1h-2v2.06C6.83 3.52 3.52 6.83 3.06 11H1v2h2.06c.46 4.17 3.77 7.48 7.94 7.94V23h2v-2.06c4.17-.46 7.48-3.77 7.94-7.94H23v-2h-2.06zM12 19c-3.87 0-7-3.13-7-7s3.13-7 7-7 7 3.13 7 7-3.13 7-7 7z"/></svg>

<svg width="24" height="24" viewBox="0 0 24 24" fill="none" xmlns="http://www.w3.org/2000/svg">
<g clip-path="url(#clip0_147_2394)">
<path d="M20.94 11C20.48 6.83 17.17 3.52 13 3.06V1H11V3.06C6.83 3.52 3.52 6.83 3.06 11H1V13H3.06C3.52 17.17 6.83 20.48 11 20.94V23H13V20.94C17.17 20.48 20.48 17.17 20.94 13H23V11H20.94ZM12 19C8.13 19 5 15.87 5 12C5 8.13 8.13 5 12 5C15.87 5 19 8.13 19 12C19 15.87 15.87 19 12 19Z" fill="#323232"/>
</g>
<defs>
<clipPath id="clip0_147_2394">
<rect width="24" height="24" fill="white"/>
</clipPath>
</defs>
</svg>
